!!!OTL: Graf und Nonne (Die Nonne) Stand ich auf hohem Berge
!!!ARE: Europa, Mitteleuropa, Deutschland (BRD), Franken, Oberfranken,
!!    Fichtelgebirge, Morlesreuth
!!!YOR: 8, S. 291
!!    1912 aufgezeichnet
!!!SCT: Q0155M.
!!!YEM: Copyright 1995, estate of Helmut Schaffrath.
**kern
*ICvox
*Ivox
*M3/4
*k[f#]
*G:
{4d
=1
2g
4d
=2
4B
4d
4g
=3
4g
4f#
4r
=4
2r}
{4d
=5
4d
4f#
4a
=6
4ee
4dd
4cc
=7
2b}
{8g
8b
=8
2dd
4dd
=9
4dd
4cc
4b
=10
4cc
4a
4d
=11
4e
4d}
{4d
=12
4d
4f#
4a
=13
4ee
4dd
4cc
=14
2b}
==
!!!AGN: Ballade, Standesunterschied, vergebliche Werbung, Liebe, Klage
!! Anhaengsel an der dritten Zeile.
!!!ONB: ESAC (Essen Associative Code) Database: BALLADE
!!!AMT: simple triple
!!!AIN: vox
!!!EED: Helmut Schaffrath
!!!EEV: 1.0
*-
